!!!!SEGMENT: pl-kk--kk-i-382--093-001_haslinger--msza-kyrie.krn
!!!id: 18xx:1597
!!!COM: Haslinger
!!!COM-rism: pe30052852
!!!CDT:
!!!CNT:
!!!OTL: Msza – Kyrie
!!!PDT:
!!!SMS-siglum: PL-Kk
!!!SMS-shelfmark: Kk.I.382
!!!NIFC-rismID: 1001142971
!!!URL-scan: http://repozytorium.nifc.pl/skany/pl-kk-nut--i-382
!!!ONB-nifc: S/T1 od 0056, T2 od 0131, A/B1 od 0201, B2 od 0274. Części Mszy: 1. Kyrie, 2. Gloria, 3. Graduale, 4. Credo, 5. Offertorium, 6. Sanctus, 7. Benedictus, 8. Agnus
!!!SMS-variant:
!!!SMS-altvar:
**kern	**text	**dynam	**kern	**text	**dynam	**kern	**text	**dynam	**kern	**text	**dynam
*part4	*part4	*part4	*part3	*part3	*part3	*part2	*part2	*part2	*part1	*part1	*part1
*staff4	*staff4	*	*staff3	*staff3	*	*staff2	*staff2	*	*staff1	*staff1	*
*group1	*	*	*group1	*	*	*group1	*	*	*group1	*	*
*I"Baſso II	*	*	*I"Baſso Imo	*	*	*I"Tenore II	*	*	*I"Tenor I	*	*
*I'B II	*	*	*I'B I	*	*	*I'T II	*	*	*I'T I	*	*
*clefF4	*	*	*clefF4	*	*	*clefG2	*	*	*clefG2	*	*
*	*	*	*	*	*	*ITrd7c12	*	*	*ITrd7c12	*	*
*k[b-e-a-]	*	*	*k[b-e-a-]	*	*	*k[b-e-a-]	*	*	*k[b-e-a-]	*	*
*E-:	*	*	*E-:	*	*	*E-:	*	*	*E-:	*	*
*M2/4	*	*	*M2/4	*	*	*M2/4	*	*	*M2/4	*	*
*all\right	*	*	*all\right	*	*	*all\right	*	*	*all\right	*	*
=1	=1	=1	=1	=1	=1	=1	=1	=1	=1	=1	=1
!LO:TX:a:i:t=Baſso IIdo przez Haslingera	!	!	!LO:TX:a:B:t=Andante	!	!	!	!	!	!LO:TX:a:B:t=Andante	!	!
!LO:TX:a:B:t=Andante	!	!	!LO:TX:a:i:t=Baſso Imo przez Haslingera	!	!LO:DY:b:rj	!LO:TX:a:i:t=Msza Haslingera	!	!LO:DY:a:rj:t=p&#58;o	!LO:TX:a:i:t=Tenor I przez Haslingera	!	!LO:DY:b:rj:t=p.
4.E-\	Ky-	.	4.G\	Ky-	p	4.B-\	Ky-	p	4.e-\	Ky-	p
8E-\	-ri-	.	8G\	-ri-	.	8B-\	-ri-	.	8e-\	-ri-	.
=2	=2	=2	=2	=2	=2	=2	=2	=2	=2	=2	=2
4E-\	-e	.	4G\	-e	.	4B-\	-e	.	4e-\	-e	.
8.r	.	.	8.r	.	.	8.r	.	.	8.r	.	.
16E-\	e-	.	16G\	e-	.	16B-\	e-	.	16e-\	e-	.
=3	=3	=3	=3	=3	=3	=3	=3	=3	=3	=3	=3
*2\right	*	*	*2\right	*	*	*2\right	*	*	*	*	*
2D\	-lei-	.	2A-\	-lei-	.	2B-\	-lei-	.	(4.e\	-lei-	.
.	.	.	.	.	.	.	.	.	8f\)	-i-	.
=4	=4	=4	=4	=4	=4	=4	=4	=4	=4	=4	=4
4D\	-son	.	4A-\	-son	.	4B-\	-son	.	4f\	-son	.
8r	.	.	8r	.	.	8r	.	.	8r	.	.
!	!	!LO:DY:a:rj:problem:na środku pięciolinii	!	!	!	!	!	!LO:DY:b:rj:problem:na środku pięciolinii	!	!	!LO:DY:b:rj
8D\	e-	f	8A-\	e-	.	8B-\	e-	f	8f\	e-	f
!	!	!	!	!	!	!	!	!	!LO:LB:g=original	!	!
=5	=5	=5	=5	=5	=5	=5	=5	=5	=5	=5	=5
4E-\	-lei-	.	4G\	-lei-	.	4e-\	-lei-	.	4g\	-lei-	.
4GG/	-son	.	4B-\	-son	.	4e-\	-son	.	4e-X\	-son	.
!LO:LB:g=original	!	!	!LO:LB:g=original	!	!	!LO:LB:g=original	!	!	!	!	!
=6	=6	=6	=6	=6	=6	=6	=6	=6	=6	=6	=6
!	!	!LO:DY:b:rj	!	!	!LO:DY:b:rj:problem:na środku pięciolinii	!	!	!LO:DY:b:rj	!	!	!LO:DY:b:rj:t=po.
8.AA-/	Ky-	p	8.A-\	Ky-	p	8.e-\	Ky-	p	8.c\	Ky-	p
16AA-/	-ri-	.	16A-\	-ri-	.	16e-\	-ri-	.	16c\	-ri-	.
8AA-/	-e	.	8A-\	-e	.	8c\	-e	.	8g\	-e	.
8AA-/	e-	.	8A-\	e-	.	8c\	e-	.	8f\	e-	.
=7	=7	=7	=7	=7	=7	=7	=7	=7	=7	=7	=7
2BB-/	-lei-	.	(4G\	-lei-	.	2B-\	-lei-	.	(4.e-\	-lei-	.
.	.	.	4G-X\)	.	.	.	.	.	.	.	.
.	.	.	.	.	.	.	.	.	16f\LL	.	.
.	.	.	.	.	.	.	.	.	16e-\JJ)	.	.
=8	=8	=8	=8	=8	=8	=8	=8	=8	=8	=8	=8
4BB-/	-son	.	8F\	-son	.	8B-\	-son	.	4d\	-son	.
.	.	.	8F\	e-	.	8A-/	Ky-	.	.	.	.
4r	.	.	8En\	-lei-	.	8G/	-ri-	.	4r	.	.
.	.	.	8F\	-son	.	8A-/	-e	.	.	.	.
=9	=9	=9	=9	=9	=9	=9	=9	=9	=9	=9	=9
!	!	!LO:DY:b:rj:problem:na środku pięciolinii	!	!	!LO:DY:b:rj:problem:na środku pięciolinii	!	!	!LO:DY:b:rj	!	!	!LO:DY:b:rj
4.E-\	Ky-	f	4.G\	Ky-	f	4.B-\	Ky-	f	4.e-\	Ky-	f
8E-\	-ri-	.	8G\	-ri-	.	8B-\	-ri-	.	8e-\	-ri-	.
!	!	!	!	!	!	!	!	!	!LO:LB:g=original	!	!
=10	=10	=10	=10	=10	=10	=10	=10	=10	=10	=10	=10
4E-\	-e	.	4G\	-e	.	4B-\	-e	.	4e-\	-e	.
8.r	.	.	8.r	.	.	8.r	.	.	8.r	.	.
16E-\	e-	.	16G\	e-	.	16B-\	e-	.	16e-\	e-	.
!	!	!	!LO:LB:g=original	!	!	!	!	!	!	!	!
=11	=11	=11	=11	=11	=11	=11	=11	=11	=11	=11	=11
2D\	-lei-	.	2A-\	-lei-	.	2B-\	-lei-	.	(<4.e\	-lei-	.
.	.	.	.	.	.	.	.	.	8f\)	.	.
!LO:LB:g=original	!	!	!	!	!	!LO:LB:g=original	!	!	!	!	!
=12	=12	=12	=12	=12	=12	=12	=12	=12	=12	=12	=12
4D\	-son	.	4A-\	-son	.	4B-\	-son	.	8f\	-son	.
.	.	.	.	.	.	.	.	.	4r	.	.
8r	.	.	8r	.	.	8r	.	.	.	.	.
!	!	!	!	!	!	!	!	!	!	!	!LO:DY:b:rj
8D\	e-	.	8A-\	e-	.	8B-\	e-	.	8f\	e-	p
=13	=13	=13	=13	=13	=13	=13	=13	=13	=13	=13	=13
4D-X/	-lei-	.	4B-\	-lei-	.	4e-\	-lei-	.	4g\	-lei-	.
4C/	-son	.	4A-\	-son	.	4e-\	-son	.	4a-\	-son	.
=14	=14	=14	=14	=14	=14	=14	=14	=14	=14	=14	=14
8.C/	Ky-	.	8.An\	Ky-	.	8.e-\	Ky-	.	8.f#X\	Ky-	.
16C/	-ri-	.	16A\	-ri-	.	16e-\	-ri-	.	16f#\	-ri-	.
8BBn/	-e	.	8D\	-e	.	8d\	-e	.	8g\	-e	.
8BB/	e-	.	8G\	e-	.	8d\	e-	.	8g\	e-	.
!	!	!	!	!	!	!	!	!	!LO:LB:g=original	!	!
=15	=15	=15	=15	=15	=15	=15	=15	=15	=15	=15	=15
4BB-X/	-lei-	.	4G\	-lei-	.	4d-X\	-lei-	.	4e\	-lei-	.
8AAn/	-son	.	8C/	-son	.	8c\	-son	.	8.f\	-son	.
8AA/	e-	.	8F\	e-	.	8c\	e-	.	.	.	.
.	.	.	.	.	.	.	.	.	16f\	e-	.
=16	=16	=16	=16	=16	=16	=16	=16	=16	=16	=16	=16
8AA-X/L	-lei-	.	8F\L	-lei-	.	4B-\	-lei-	.	(8d\L	-lei-	.
8GG/J	.	.	8G\J	.	.	.	.	.	8e-X\J)	.	.
8D\	-son	.	8A-X\	-son	.	8B-\	-son	.	8f\	-son	.
8E-\	e-	.	16G\LL	e-	.	8B-\	Ky-	.	8g\	e-	.
.	.	.	16E-\JJ	.	.	.	.	.	.	.	.
!LO:LB:g=original	!	!	!LO:LB:g=original	!	!	!LO:LB:g=original	!	!	!	!	!
=17	=17	=17	=17	=17	=17	=17	=17	=17	=17	=17	=17
8BB-/	-lei-	.	8E-\	-lei-	.	8B-\	-ri-	.	8g\	-lei-	.
8BB-/	-son	.	8D\	-son	.	8B-\	-e	.	8f\	-son	.
4r	.	.	8r	.	.	8r	.	.	8r	.	.
!	!	!	!	!	!	!	!	!LO:DY:b:rj:t=po.	!	!	!LO:DY:b:rj
.	.	.	8B-\	e-	.	8d\	e-	p	8f\	e-	p
=18	=18	=18	=18	=18	=18	=18	=18	=18	=18	=18	=18
4r	.	.	4c\	-lei-	.	4e-\	-lei-	.	4f\	-lei-	.
8r	.	.	8B-\	-son	.	8d\	-son	.	8f\	-son	.
!	!	!LO:DY:b:rj	!	!	!	!	!	!	!	!	!
8FF/	e-	p	8An\	e-	.	8c\	e-	.	8f\	e-	.
=19	=19	=19	=19	=19	=19	=19	=19	=19	=19	=19	=19
8.BB-/L	-lei-	.	4B-\	-lei-	.	8d\	-lei-	.	(8.f\L	-lei-	.
.	.	.	.	.	.	8B-\	-son	.	.	.	.
16C/Jk	.	.	.	.	.	.	.	.	16d\Jk	.	.
8D/	-son	.	8F\	-son	.	8r	.	.	8B-\)	-son	.
8BB-/	e-	.	8B-\	e-	.	8d\	e-	.	8f\	[e]-	.
!	!	!	!	!	!	!	!	!	!LO:LB:g=original	!	!
=20	=20	=20	=20	=20	=20	=20	=20	=20	=20	=20	=20
8F\	-lei-	.	4c\	-lei-	.	4e-\	-lei-	.	4f\	-lei-	.
8FF/	-son	.	.	.	.	.	.	.	.	.	.
8r	.	.	8B-\	-son	.	8d\	-son	.	8f\	-son	.
8F\	e-	.	8An\	e-	.	8c\	e-	.	8f\	e-	.
=21	=21	=21	=21	=21	=21	=21	=21	=21	=21	=21	=21
!	!	!	!	!	!	!	!	!LO:HP:a	!	!	!LO:HP:b
2D\	-lei-	.	(4B-\	-lei-	.	2B-\	-lei-	<	(4f\	-lei-	<
.	.	.	4A-X\)	.	.	.	.	.	4f#X\)	.	[
!	!	!	!	!	!	!	!	!	!	!	!LO:DY:b
.	.	.	.	.	.	.	.	[[	.	.	f
!	!	!	!LO:LB:g=original	!	!LO:LB:g=original	!	!	!	!	!	!
=22	=22	=22	=22	=22	=22	=22	=22	=22	=22	=22	=22
!	!	!	!	!	!	!	!	!LO:DY:b:rj	!	!	!
4E-\	-son	.	4G\	-son	.	4B-\	-son	f	4g\	-son	.
!	!	!	!	!	!LO:DY:b:rj	!	!	!LO:DY:b:rj	!	!	!LO:DY:b:rj
4En\	e-	.	4G\	e-	p	4B-\	e-	p	4c\	e-	p
!LO:LB:g=original	!	!	!	!	!	!	!	!	!	!	!
=23	=23	=23	=23	=23	=23	=23	=23	=23	=23	=23	=23
2F\	-lei-	.	2F\	-lei-	.	8B-\L	-lei-	.	4d\	-lei-	.
.	.	.	.	.	.	8B\	.	.	.	.	.
.	.	.	.	.	.	8c\	.	.	(8e-\L	.	.
.	.	.	.	.	.	8A\J	-i-	.	8c\J)	.	.
=24	=24	=24	=24	=24	=24	=24	=24	=24	=24	=24	=24
8BB-/	-son	.	8F\	-son	.	8B-X\	-son	.	8B-\	-son	.
8BB-/	e-	.	8B-\	e-	.	8d\	e-	.	8f\	e-	.
4BB-/	-lei-	.	8.An\L	-lei-	.	4c\	-lei-	.	8.f\L	-lei-	.
.	.	.	16c\Jk	.	.	.	.	.	16e-\Jk	.	.
!	!	!	!	!	!	!	!	!	!LO:LB:g=original	!	!
=25	=25	=25	=25	=25	=25	=25	=25	=25	=25	=25	=25
8BB-/	-son	.	8F\	-son	.	8B-\	-son	.	8d\	-son	.
8BB-/	e-	.	8B-\	e-	.	8d\	e-	.	(16g\LL	e-	.
.	.	.	.	.	.	.	.	.	16f\JJ)	.	.
4BB-/	-lei-	.	4An\	-lei-	.	4c\	-lei-	.	(8.f\L	-lei-	.
.	.	.	.	.	.	.	.	.	16e-\Jk)	.	.
=26	=26	=26	=26	=26	=26	=26	=26	=26	=26	=26	=26
8BB-/	-son	.	8B-\	-son	.	8B-\	-son	.	8d\	-son	.
!	!	!LO:DY:b:rj:problem:na środku pięciolinii	!	!	!LO:DY:b:rj:problem:na środku pięciolinii	!	!	!LO:DY:a:rj	!	!	!LO:DY:b:rj
16G\	Ky-	f	16B-\	Ky-	f	16B-\	Ky-	f	16d\	Ky-	f
16G\	-ri-	.	16B-\	-ri-	.	16B-\	-ri-	.	16d\	-ri-	.
8G\	-e	.	8B-\	-e	.	8B-\	-e	.	8e-\	-e	.
8G-X\	e-	.	8B-\	e-	.	8d-X\	e-	.	16e\	e-	.
.	.	.	.	.	.	.	.	.	(16e\	-lei-	.
!	!	!	!LO:LB:g=original	!	!	!LO:LB:g=original	!	!	!	!	!
=27	=27	=27	=27	=27	=27	=27	=27	=27	=27	=27	=27
*	*	*	*	*	*	*	*	*	*2\right	*	*
!	!	!	!	!	!	!	!	!	!LO:N:vis=2.	!	!
2F\	-lei-	.	(8B-\L	-lei-	.	(4d\	-lei-	.	2f\)	.	.
.	.	.	8Bn\	.	.	.	.	.	.	.	.
.	.	.	8c\	.	.	8e-\L	.	.	.	.	.
.	.	.	8An\J)	.	.	8c\J)	.	.	.	.	.
!LO:LB:g=original	!	!	!	!	!	!	!	!	!	!	!
=28	=28	=28	=28	=28	=28	=28	=28	=28	=28	=28	=28
!LO:TX:t=P:problem:kreska taktowa pojedyncza	!	!	!	!	!	!	!	!	!LO:N:vis=2.	!	!
2BB-;/	-son	.	2F;\	-son	.	2B-X;\	-son	.	2d;\	-son	.
!	!	!	!	!	!	!	!	!	!LO:LB:g=original	!	!
=29||	=29||	=29||	=29||	=29||	=29||	=29||	=29||	=29||	=29||	=29||	=29||
*	*	*	*	*	*	*	*	*	*k[b-e-a-]	*	*
*	*	*	*	*	*	*	*	*	*E-:	*	*
!	!	!LO:DY:b:rj	!	!	!LO:DY:b:rj	!	!	!LO:DY:b:rj:problem:na środku pięciolinii	!	!	!LO:DY:b:rj
4.E-\	Ky-	p	4.G\	Ky-	p	4.B-\	Ky-	p	4.e-\	Ky-	p
8E-\	-ri-	.	8G\	-ri-	.	8B-\	-ri-	.	8e-\	-ri-	.
=30	=30	=30	=30	=30	=30	=30	=30	=30	=30	=30	=30
4..E-\	-e	.	4G\	-e	.	4B-\	-e	.	4e-\	-e	.
.	.	.	8.r	.	.	8.r	.	.	8.r	.	.
16E-\	e-	.	16G\	e-	.	16B-\	e-	.	16e-\	e-	.
=31	=31	=31	=31	=31	=31	=31	=31	=31	=31	=31	=31
2D\	-lei-	.	2A-X\	-lei-	.	2B-\	-lei-	.	4.e\	-lei-	.
.	.	.	.	.	.	.	.	.	[8f\	-son	.
=32	=32	=32	=32	=32	=32	=32	=32	=32	=32	=32	=32
4D\	-son	.	4A-\	-son	.	4B-\	-son	.	4f\]	.	.
8r	.	.	8r	.	.	8r	.	.	8r	.	.
!	!	!	!	!	!LO:DY:b:rj	!	!	!LO:DY:a:rj:na środku pięciolinii	!	!	!LO:DY:b:rj
8D\	e-	.	8A-\	e-	f	8B-\	e-	f	8f\	e-	f
!	!	!	!	!	!	!LO:LB:g=original	!	!	!	!	!
=33	=33	=33	=33	=33	=33	=33	=33	=33	=33	=33	=33
4E-\	-lei-	.	4G\	-lei-	.	4B-\	-lei-	.	4g\	-lei-	.
4GG/	-son	.	4B-\	-son	.	4B-\	-son	.	4e-X\	-son	.
!LO:LB:g=original	!	!	!LO:LB:g=original	!	!	!	!	!	!LO:LB:g=original	!	!
=34	=34	=34	=34	=34	=34	=34	=34	=34	=34	=34	=34
!	!	!	!	!	!LO:DY:b:rj	!	!	!LO:DY:b:rj:t=p&#58;	!	!	!LO:DY:b:rj
8.AA-/	Ky-	.	8.A-\	Ky-	p	8.c\	Ky-	p	8.c\	Ky-	p
16AA-/	-ri-	.	16A-\	-ri-	.	16c\	-ri-	.	16c\	-ri-	.
8AA-/	-e	.	8A-\	-e	.	8c\	-e	.	8g\	-e	.
8AA-/	e-	.	8A-\	e-	.	8c\	e-	.	8f\	e-	.
=35	=35	=35	=35	=35	=35	=35	=35	=35	=35	=35	=35
2BB-/	-lei-	.	(<4G\	-lei-	.	2B-\	-lei-	.	(4.e-\	-lei-	.
.	.	.	4G-X\)	.	.	.	.	.	.	.	.
.	.	.	.	.	.	.	.	.	16f\LL	.	.
.	.	.	.	.	.	.	.	.	16e-\JJ)	.	.
=36	=36	=36	=36	=36	=36	=36	=36	=36	=36	=36	=36
4BB-/	-son	.	8F\	-son	.	8B-/	-son	.	4d\	-son	.
.	.	.	8F\	e-	.	8A-/	Ky-	.	.	.	.
4r	.	.	8En\	-lei-	.	8G/	-ri-	.	4r	.	.
.	.	.	8F\	-son	.	8A-/	-e	.	.	.	.
=37	=37	=37	=37	=37	=37	=37	=37	=37	=37	=37	=37
!	!	!	!	!	!LO:DY:b:rj:problem:na środku pięciolinii	!	!	!LO:DY:b:rj:problem:na środku pięciolinii	!	!	!LO:DY:b:rj
4.E-\	Ky-	.	4.G\	Ky-	f	4.B-\	Ky-	f	4.e-\	Ky-	f
8E-\	-ri-	.	8G\	-ri-	.	8B-\	-ri-	.	8e-\	-ri-	.
!	!	!	!	!	!	!LO:LB:g=original	!	!	!	!	!
=38	=38	=38	=38	=38	=38	=38	=38	=38	=38	=38	=38
4E-\	-e	.	4G\	-e	.	4B-\	-e	.	4e-\	-e	.
8.r	.	.	8.r	.	.	8.r	.	.	8.r	.	.
16E-\	e-	.	16G\	e-	.	16B-\	e-	.	16e-\	e-	.
!	!	!	!LO:LB:g=original	!	!	!	!	!	!LO:LB:g=original	!	!
=39	=39	=39	=39	=39	=39	=39	=39	=39	=39	=39	=39
2D\	-lei-	.	2A-\	-lei-	.	2B-\	-lei-	.	(<4.e\	-lei-	.
.	.	.	.	.	.	.	.	.	8f\)	.	.
!LO:LB:g=original	!	!	!	!	!	!	!	!	!	!	!
=40	=40	=40	=40	=40	=40	=40	=40	=40	=40	=40	=40
4D\	-son	.	4A-\	-son	.	4B-\	-son	.	4f\	-son	.
8r	.	.	8r	.	.	8r	.	.	8r	.	.
!	!	!	!	!	!	!	!	!	!	!	!LO:DY:b:rj
8D\	e-	.	8A-\	e-	.	8B-\	e-	.	8f\	e-	p
=41	=41	=41	=41	=41	=41	=41	=41	=41	=41	=41	=41
4D-X\	-lei-	.	4E-\	-lei-	.	4B-/	-lei-	.	4g\	-lei-	.
4C\	-son	.	4E-\	-son	.	4A-/	-son	.	4a-\	-son	.
=42	=42	=42	=42	=42	=42	=42	=42	=42	=42	=42	=42
8.C/	Ky-	.	8.An\	Ky-	.	8.e-\	Ky-	.	8.f#X\	Ky-	.
16C/	-ri-	.	16A\	-ri-	.	16e-\	-ri-	.	16f#\	-ri-	.
8BBn/	-e	.	8D\	-e	.	8d\	-e	.	8g\	-e	.
8BB/	e-	.	8G\	e-	.	8d\	e-	.	8g\	e-	.
!	!	!	!	!	!	!LO:LB:g=original	!	!	!	!	!
=43	=43	=43	=43	=43	=43	=43	=43	=43	=43	=43	=43
4BB-X/	-lei-	.	4G\	-lei-	.	4d-X\	-lei-	.	4e\	-lei-	.
8AAn/	-son	.	8C/	-son	.	8c\	-son	.	8f\	-son	.
8AA/	e-	.	8F\	e-	.	8c\	e-	.	8f\	e-	.
!LO:LB:g=original	!	!	!LO:LB:g=original	!	!	!	!	!	!LO:LB:g=original	!	!
=44	=44	=44	=44	=44	=44	=44	=44	=44	=44	=44	=44
4AA-X/	-lei-	.	4F\	-lei-	.	4B-\	-lei-	.	4d\	-lei-	.
8GG/	-son	.	8E-\	-son	.	8B-\	-son	.	8e-X\	-son	.
8r	.	.	8r	.	.	8r	.	.	8r	.	.
!	!	!	!	!	!	!	!	!	!	!	!LO:DY:b
.	.	.	.	.	.	.	.	.	.	.	p
=45	=45	=45	=45	=45	=45	=45	=45	=45	=45	=45	=45
4GG/	Chri-	.	4E-\	Chri-	.	4B-\	Chri-	.	4d-X\	Chri-	.
8GG/	-ste	.	8E-\	-ste	.	8B-\	-ste	.	8d-\	-ste	.
8GG/	e-	.	8E-\	e-	.	8B-\	e-	.	8d-\	e-	.
=46	=46	=46	=46	=46	=46	=46	=46	=46	=46	=46	=46
4AA-/	-lei-	.	8E-\	-lei-	.	4c\	-lei-	.	8.c\L	-lei-	.
.	.	.	8A-\	-son	.	.	.	.	.	.	.
.	.	.	.	.	.	.	.	.	16d\Jk	.	.
8AA-/	-son	.	8r	.	.	8c\	-son	.	8e-\	-son	.
.	.	.	.	.	.	.	.	.	8qg/	.	.
8AA-/	e-	.	8A-\	e-	.	8c\	e-	.	8f\	e-	.
!	!	!	!	!	!	!LO:LB:g=original	!	!	!	!	!
=47	=47	=47	=47	=47	=47	=47	=47	=47	=47	=47	=47
2BB-/	-lei-	.	4G\	-lei-	.	2B-\	-lei-	.	(4e-\	-lei-	.
.	.	.	4F\	-son	.	.	.	.	4d\)	.	.
!	!	!	!LO:LB:g=original	!	!	!	!	!	!	!	!
=48	=48	=48	=48	=48	=48	=48	=48	=48	=48	=48	=48
8E-\	-son	.	8G\	e-	.	8B-\	-son	.	8e-\	-son	.
8E-\	e-	.	8G\	-lei-	.	8B-\	e-	.	16r	.	.
.	.	.	.	.	.	.	.	.	16e-\	e-	.
4BB-/	-lei-	.	4A-\	-son	.	4d\	-lei-	.	8.f\L	-lei-	.
.	.	.	.	.	.	.	.	.	16g\Jk	.	.
!LO:LB:g=original	!	!	!	!	!	!	!	!	!LO:LB:g=original	!	!
=49	=49	=49	=49	=49	=49	=49	=49	=49	=49	=49	=49
8E-\	-son	.	8G\	e-	.	8e-\	-son	.	8e-\	-son	.
8E-\	e-	.	8G\	-lei-	.	8B-\	e-	.	16r	.	.
.	.	.	.	.	.	.	.	.	16e-\	e-	.
4BB-/	-lei-	.	4A-\	.	.	4B-^\	-lei-	.	8.f\L	-lei-	.
.	.	.	.	.	.	.	.	.	16g\Jk	.	.
=50	=50	=50	=50	=50	=50	=50	=50	=50	=50	=50	=50
[2E-\	-son.	.	[2G\	-son	.	[<2B-\	-son	.	[<2e-\	-son	.
!	!	!	!	!	!	!	!	!LO:HP:a	!	!	!
.	.	.	.	.	.	.	.	<	.	.	<
.	.	.	.	.	.	.	.	[[	.	.	[[
=51	=51	=51	=51	=51	=51	=51	=51	=51	=51	=51	=51
!	!	!	!	!	!	!	!	!LO:HP:a	!	!	!LO:HP:a
4E-\]	.	.	4G\]	.	.	4B-\]	.	>	4e-\]	.	>
4r;	.	.	4r;	.	.	4r;	.	]	4r;	.	]
==	==	==	==	==	==	==	==	==	==	==	==
*-	*-	*-	*-	*-	*-	*-	*-	*-	*-	*-	*-
!!!system-decoration: [g1]
!!!RDF**kern: > = above
!!!RDF**kern: < = below
!!!ENC: Andrzej Kubiczek
!!!END: 2021-03-25
!!!ENC: Andrzej Borzym
!!!END: 2021-03-05
